X:75
T:Duke of Hamilton's Reel. Ru2.075, The
%%VWML:RutherfordVol2-2249-p38-0
F:http://www.vwml.org/record/RutherfordVol2/2249/p38
R:Reel
B:RUTHERFORD Complete Collection of 200 Country Dances Vol.2; 1759.
Z:vmp.Mike Hicken 2015 www.village-music-project.org.uk
N: The final symbol of dance notation in the original is :|
M:C|
K:G
|:G>Bd>B A2e2|G>B de/f/ g>dB>G|c>eB>g A>A e2|d/c/B/A/ GB d2e2 :|
|: d>Bg>B A>A e2|d>Bg>B d>eg>a|b/a/g/f/ g>B A>A e2|de/f/ g>B d2e2 :|
W:
W: First Cu foot it & cast off two Cu: .|  cast up
W: again :|  Cross over two Cu: .|.  lead to the top
W: foot it & cast off :|.  foot it corners & turn .||.
W: lead out sides & turn :|
T:Liecester House. Ru2.076
L:1/8
B:RUTHERFORD Complete Collection of 200 Country Dances Vol.2; 1759.
Z:vmp.Mike Hicken 2015 www.village-music-project.org.uk
N: The final symbol of dance notation in the original is :|
M:C|
K:G
|:c|B>Gd>c B>Ge>c|B>Gg>B c>AA>c|B>Gd>B e>fg>e|B>GA>F G>G,G, :|
|:d|gd B/c/d/B/ gd B/c/d/B/|gd B/c/d/B/ aAAf|gd B/c/d/B/ gd B/c/d/B/ |c>Ad>c B>GG :|
W:
W: Cast off one Cu: & cross over another Cu: .|  Cast up
W: one Cu: & cross up to the top .|.  1st Man foot it to the 2d Wo
W: & turn her .|.  1st Wo the same to the 2d Man :|.  cast off
W: two Cu: .|| lead up to the top foot it & Cast off :||
W: lead thro' the 3d Cu: & cast up in to the 2d Cu: place .||.
W: Hands round all six :|
